X:1
T:CLARISSE
C:Michel PLATRE
Z:Creative Commons BY-NC-SA
L:1/4
M:3/4
K:C
V:1 treble 
V:1
 G | c2 d | e2 f | e d c | d2 G | c2 d | e2 f | g3- | g2 G | c2 d | e2 f | e d c | d2 G | c2 c | %14
 _B2 d | c3- | c3 || d e f | g3 | g f e | d3 | e e d | c2 c | d2 e | d3 | d e f | g3 | g f e | d3 | %29
 e e d | c2 c | _B2 d | c3 || %33

